!!!OTL: No_39_The_Song_of_De'kûm.krn
!!!REG: Great_Lakes
!!!LANG: Non-Tone
!!!LING_GROUP: Algonquin
!!!SOCIAL_FUNCTION: songs of war
**kern	**kern
*staff2	*staff1
*clefF4	*clefF4
*k[]	*k[]
*M3/4	*M3/4
4r	8e\L
.	8e\J
=1	=1
8GG/L	2e\
8GG/J	.
8GG/L	.
8GG/J	.
8GG/L	4c\
8GG/J	.
=2	=2
2.r	2d\
.	4A\
=3||	=3||
*M2/4	*M2/4
2r	[2A\
=4||	=4||
*M3/4	*M3/4
2.r	2A\]
.	8e\L
.	8e\J
=5	=5
2.r	2e\
.	4c\
=6	=6
2.r	2d\
.	4A\
=7||	=7||
*M2/4	*M2/4
2r	2A\
=8	=8
2r	4A\
.	4A\
=9	=9
2r	4.A\
.	8c\
=10||	=10||
*M4/4	*M4/4
1r	4c\
.	4A\
.	8.A\L
.	16A\Jk
.	4G\
=11	=11
1r	2E\
.	4C/
.	8C/L
.	8C/J
=12||	=12||
*M3/4	*M3/4
2.r	2D\
.	4C/
=13	=13
2.r	2D\
.	4C/
=14	=14
2.r	2.C/
==	==
*-	*-
